X:258
T:Bag o' Spuds -- Em
M:4/4
R:Ree;
K:Em
||:"Em" E2BE FEBE| EFGA BFAF | "D" D2AD FDAD | DEFG AFGF |
"Em"E2BE FEBE| EFGA BFAF | "Em"EFGA BcdB | "Bm"AFDF FEE2 :|
|:"Em" e2Be edBd | edfd edBc | "D" dBAG FDFA | dcde fdBd |
"Em" e2Be edBd | edfd edBd | "D" A3B d3B | AFDF "Em" FEE2:||
